X:197
T:Road to Boston
M:4/4
L:1/4
K:D
|"D"f2f e/f/|"G"g f e d|"A"c d e f |"D"d A F A|"D"f2f e/f/|
"G"g f e d|"A"c d e f |1 "D"d2 A2:|2 defg|
|:"D"a2a ^g/a/|"G"b a g f|
"Em"g2g f/g/|"A"a g f e |"D"f2f e/f/|"G"g f e d|"A"c d e f |1"D"defg:|2
d4|
